dist/img/common/add-file.svg

<svg width="177" height="115" viewBox="0 0 177 115" fill="none" xmlns="http://www.w3.org/2000/svg">
<rect width="177" height="115" fill="#F8F8F8"/>
<path d="M53.7402 87.0918H52.6211V85H46.498V87.0977H45.373L45.3672 84.0801H46.0645C46.4316 83.666 46.7227 83.1113 46.9375 82.416C47.1562 81.7168 47.293 80.9512 47.3477 80.1191L47.5352 76.4688H52.6387V84.0801H53.752L53.7402 87.0918ZM47.3477 84.0801H51.5078V77.3945H48.6191L48.4961 79.9023C48.4453 80.8828 48.3145 81.7188 48.1035 82.4102C47.8965 83.1016 47.6445 83.6582 47.3477 84.0801ZM54.6309 81.7715C54.6309 81.1504 54.752 80.5918 54.9941 80.0957C55.2402 79.5996 55.5801 79.2168 56.0137 78.9473C56.4512 78.6777 56.9492 78.543 57.5078 78.543C58.3711 78.543 59.0684 78.8418 59.5996 79.4395C60.1348 80.0371 60.4023 80.832 60.4023 81.8242V81.9004C60.4023 82.5176 60.2832 83.0723 60.0449 83.5645C59.8105 84.0527 59.4727 84.4336 59.0312 84.707C58.5938 84.9805 58.0898 85.1172 57.5195 85.1172C56.6602 85.1172 55.9629 84.8184 55.4277 84.2207C54.8965 83.623 54.6309 82.832 54.6309 81.8477V81.7715ZM55.7207 81.9004C55.7207 82.6035 55.8828 83.168 56.207 83.5938C56.5352 84.0195 56.9727 84.2324 57.5195 84.2324C58.0703 84.2324 58.5078 84.0176 58.832 83.5879C59.1562 83.1543 59.3184 82.5488 59.3184 81.7715C59.3184 81.0762 59.1523 80.5137 58.8203 80.084C58.4922 79.6504 58.0547 79.4336 57.5078 79.4336C56.9727 79.4336 56.541 79.6465 56.2129 80.0723C55.8848 80.498 55.7207 81.1074 55.7207 81.9004ZM64.5449 79.0234C65.3418 79.0234 65.9785 79.291 66.4551 79.8262C66.9355 80.3574 67.1758 81.0586 67.1758 81.9297V82.0293C67.1758 82.627 67.0605 83.1621 66.8301 83.6348C66.5996 84.1035 66.2676 84.4688 65.834 84.7305C65.4043 84.9883 64.9082 85.1172 64.3457 85.1172C63.4941 85.1172 62.8086 84.834 62.2891 84.2676C61.7695 83.6973 61.5098 82.9336 61.5098 81.9766V81.4492C61.5098 80.1172 61.7559 79.0586 62.248 78.2734C62.7441 77.4883 63.4746 77.0098 64.4395 76.8379C64.9863 76.7402 65.3555 76.6211 65.5469 76.4805C65.7383 76.3398 65.834 76.1465 65.834 75.9004H66.7246C66.7246 76.3887 66.6133 76.7695 66.3906 77.043C66.1719 77.3164 65.8203 77.5098 65.3359 77.623L64.5273 77.8047C63.8828 77.957 63.3984 78.2148 63.0742 78.5781C62.7539 78.9375 62.5449 79.418 62.4473 80.0195C63.0215 79.3555 63.7207 79.0234 64.5449 79.0234ZM64.334 79.9141C63.8027 79.9141 63.3809 80.0938 63.0684 80.4531C62.7559 80.8086 62.5996 81.3027 62.5996 81.9355V82.0293C62.5996 82.709 62.7559 83.248 63.0684 83.6465C63.3848 84.041 63.8105 84.2383 64.3457 84.2383C64.8848 84.2383 65.3105 84.0391 65.623 83.6406C65.9355 83.2422 66.0918 82.6602 66.0918 81.8945C66.0918 81.2969 65.9336 80.8184 65.6172 80.459C65.3047 80.0957 64.877 79.9141 64.334 79.9141ZM72.3086 85C72.2461 84.875 72.1953 84.6523 72.1562 84.332C71.6523 84.8555 71.0508 85.1172 70.3516 85.1172C69.7266 85.1172 69.2129 84.9414 68.8105 84.5898C68.4121 84.2344 68.2129 83.7852 68.2129 83.2422C68.2129 82.582 68.4629 82.0703 68.9629 81.707C69.4668 81.3398 70.1738 81.1562 71.084 81.1562H72.1387V80.6582C72.1387 80.2793 72.0254 79.9785 71.7988 79.7559C71.5723 79.5293 71.2383 79.416 70.7969 79.416C70.4102 79.416 70.0859 79.5137 69.8242 79.709C69.5625 79.9043 69.4316 80.1406 69.4316 80.418H68.3418C68.3418 80.1016 68.4531 79.7969 68.6758 79.5039C68.9023 79.207 69.207 78.9727 69.5898 78.8008C69.9766 78.6289 70.4004 78.543 70.8613 78.543C71.5918 78.543 72.1641 78.7266 72.5781 79.0938C72.9922 79.457 73.207 79.959 73.2227 80.5996V83.5176C73.2227 84.0996 73.2969 84.5625 73.4453 84.9062V85H72.3086ZM70.5098 84.1738C70.8496 84.1738 71.1719 84.0859 71.4766 83.9102C71.7812 83.7344 72.002 83.5059 72.1387 83.2246V81.9238H71.2891C69.9609 81.9238 69.2969 82.3125 69.2969 83.0898C69.2969 83.4297 69.4102 83.6953 69.6367 83.8867C69.8633 84.0781 70.1543 84.1738 70.5098 84.1738ZM75.0215 85V78.6602H77.4941C78.3379 78.6602 78.9844 78.8086 79.4336 79.1055C79.8867 79.3984 80.1133 79.8301 80.1133 80.4004C80.1133 80.6934 80.0254 80.959 79.8496 81.1973C79.6738 81.4316 79.4141 81.6113 79.0703 81.7363C79.4531 81.8262 79.7598 82.002 79.9902 82.2637C80.2246 82.5254 80.3418 82.8379 80.3418 83.2012C80.3418 83.7832 80.127 84.2285 79.6973 84.5371C79.2715 84.8457 78.668 85 77.8867 85H75.0215ZM76.1055 82.2168V84.127H77.8984C78.3516 84.127 78.6895 84.043 78.9121 83.875C79.1387 83.707 79.252 83.4707 79.252 83.166C79.252 82.5332 78.7871 82.2168 77.8574 82.2168H76.1055ZM76.1055 81.3496H77.5059C78.5215 81.3496 79.0293 81.0527 79.0293 80.459C79.0293 79.8652 78.5488 79.5586 77.5879 79.5391H76.1055V81.3496ZM85.8789 78.6602H86.9629V85H85.8789V80.377L82.9551 85H81.8711V78.6602H82.9551V83.2891L85.8789 78.6602ZM93.4141 79.5391H91.2871V85H90.2031V79.5391H88.1172V78.6602H93.4141V79.5391ZM95.6523 80.8457H97.2988C98.0176 80.8535 98.5859 81.041 99.0039 81.4082C99.4219 81.7754 99.6309 82.2734 99.6309 82.9023C99.6309 83.5352 99.416 84.043 98.9863 84.4258C98.5566 84.8086 97.9785 85 97.252 85H94.5684V78.6602H95.6523V80.8457ZM95.6523 81.7305V84.1152H97.2637C97.6699 84.1152 97.9844 84.0117 98.207 83.8047C98.4297 83.5938 98.541 83.3066 98.541 82.9434C98.541 82.5918 98.4316 82.3047 98.2129 82.082C97.998 81.8555 97.6953 81.7383 97.3047 81.7305H95.6523ZM103.727 81.9473C103.727 80.8887 103.932 80.0566 104.342 79.4512C104.752 78.8457 105.314 78.543 106.029 78.543C106.361 78.543 106.652 78.5996 106.902 78.7129V76H107.986V78.748C108.26 78.6113 108.58 78.543 108.947 78.543C109.666 78.543 110.23 78.8457 110.641 79.4512C111.051 80.0566 111.256 80.9297 111.256 82.0703C111.256 83.0039 111.051 83.7461 110.641 84.2969C110.234 84.8477 109.674 85.123 108.959 85.123C108.58 85.123 108.256 85.0605 107.986 84.9355V87.4375H106.902V84.9531C106.645 85.0664 106.35 85.123 106.018 85.123C105.307 85.123 104.746 84.8477 104.336 84.2969C103.93 83.7461 103.727 82.9922 103.727 82.0352V81.9473ZM110.172 81.9473C110.172 81.1504 110.035 80.5332 109.762 80.0957C109.488 79.6543 109.111 79.4336 108.631 79.4336C108.385 79.4336 108.17 79.4727 107.986 79.5508V84.1387C108.162 84.2051 108.381 84.2383 108.643 84.2383C109.127 84.2383 109.502 84.0508 109.768 83.6758C110.037 83.3008 110.172 82.7246 110.172 81.9473ZM104.811 82.0703C104.811 82.7812 104.938 83.3203 105.191 83.6875C105.445 84.0547 105.811 84.2383 106.287 84.2383C106.514 84.2383 106.719 84.2031 106.902 84.1328V79.5332C106.738 79.4668 106.537 79.4336 106.299 79.4336C105.822 79.4336 105.455 79.6465 105.197 80.0723C104.939 80.498 104.811 81.1641 104.811 82.0703ZM112.381 81.7715C112.381 81.1504 112.502 80.5918 112.744 80.0957C112.99 79.5996 113.33 79.2168 113.764 78.9473C114.201 78.6777 114.699 78.543 115.258 78.543C116.121 78.543 116.818 78.8418 117.35 79.4395C117.885 80.0371 118.152 80.832 118.152 81.8242V81.9004C118.152 82.5176 118.033 83.0723 117.795 83.5645C117.561 84.0527 117.223 84.4336 116.781 84.707C116.344 84.9805 115.84 85.1172 115.27 85.1172C114.41 85.1172 113.713 84.8184 113.178 84.2207C112.646 83.623 112.381 82.832 112.381 81.8477V81.7715ZM113.471 81.9004C113.471 82.6035 113.633 83.168 113.957 83.5938C114.285 84.0195 114.723 84.2324 115.27 84.2324C115.82 84.2324 116.258 84.0176 116.582 83.5879C116.906 83.1543 117.068 82.5488 117.068 81.7715C117.068 81.0762 116.902 80.5137 116.57 80.084C116.242 79.6504 115.805 79.4336 115.258 79.4336C114.723 79.4336 114.291 79.6465 113.963 80.0723C113.635 80.498 113.471 81.1074 113.471 81.9004ZM124.094 79.5391H121.967V85H120.883V79.5391H118.797V78.6602H124.094V79.5391ZM124.615 81.7715C124.615 81.1504 124.736 80.5918 124.979 80.0957C125.225 79.5996 125.564 79.2168 125.998 78.9473C126.436 78.6777 126.934 78.543 127.492 78.543C128.355 78.543 129.053 78.8418 129.584 79.4395C130.119 80.0371 130.387 80.832 130.387 81.8242V81.9004C130.387 82.5176 130.268 83.0723 130.029 83.5645C129.795 84.0527 129.457 84.4336 129.016 84.707C128.578 84.9805 128.074 85.1172 127.504 85.1172C126.645 85.1172 125.947 84.8184 125.412 84.2207C124.881 83.623 124.615 82.832 124.615 81.8477V81.7715ZM125.705 81.9004C125.705 82.6035 125.867 83.168 126.191 83.5938C126.52 84.0195 126.957 84.2324 127.504 84.2324C128.055 84.2324 128.492 84.0176 128.816 83.5879C129.141 83.1543 129.303 82.5488 129.303 81.7715C129.303 81.0762 129.137 80.5137 128.805 80.084C128.477 79.6504 128.039 79.4336 127.492 79.4336C126.957 79.4336 126.525 79.6465 126.197 80.0723C125.869 80.498 125.705 81.1074 125.705 81.9004Z" fill="#838383"/>
<path d="M45.0742 86.1719H130.926V86.7578H45.0742V86.1719Z" fill="#838383"/>
<path d="M104.836 38.018C104.137 37.2861 103.172 36.8536 102.074 36.8536H96.5513V36.787C96.5513 35.9553 96.2186 35.1568 95.653 34.6245C95.0875 34.0589 94.3222 33.7262 93.4905 33.7262H83.5095C82.6445 33.7262 81.8793 34.0589 81.3137 34.6245C80.7481 35.1901 80.4154 35.9553 80.4154 36.787V36.8536H74.9259C73.8279 36.8536 72.8631 37.2861 72.1644 38.018C71.4658 38.7167 71 39.7148 71 40.7794V57.3479C71 58.4458 71.4325 59.4106 72.1644 60.1093C72.8631 60.8079 73.8612 61.2737 74.9259 61.2737H102.074C103.172 61.2737 104.137 60.8412 104.836 60.1093C105.534 59.4106 106 58.4125 106 57.3479V40.7794C106 39.6815 105.567 38.7167 104.836 38.018ZM104.27 57.3479H104.237C104.237 57.9467 104.004 58.4791 103.605 58.8783C103.205 59.2775 102.673 59.5104 102.074 59.5104H74.9259C74.327 59.5104 73.7947 59.2775 73.3954 58.8783C72.9962 58.4791 72.7633 57.9467 72.7633 57.3479V40.7794C72.7633 40.1806 72.9962 39.6482 73.3954 39.249C73.7947 38.8498 74.327 38.6169 74.9259 38.6169H81.347C81.846 38.6169 82.2452 38.2176 82.2452 37.7186V36.7538C82.2452 36.3878 82.3783 36.0551 82.6112 35.8222C82.8441 35.5893 83.1768 35.4562 83.5428 35.4562H93.4905C93.8565 35.4562 94.1892 35.5893 94.4221 35.8222C94.6549 36.0551 94.788 36.3878 94.788 36.7538V37.7186C94.788 38.2176 95.1873 38.6169 95.6863 38.6169H102.107C102.706 38.6169 103.239 38.8498 103.638 39.249C104.037 39.6482 104.27 40.1806 104.27 40.7794V57.3479Z" fill="#838383"/>
<path d="M88.5001 40.8792C86.2377 40.8792 84.175 41.8108 82.7111 43.2747C81.214 44.7718 80.3157 46.8013 80.3157 49.0636C80.3157 51.326 81.2472 53.3887 82.7111 54.8526C84.2083 56.3498 86.2377 57.2481 88.5001 57.2481C90.7624 57.2481 92.8252 56.3165 94.2891 54.8526C95.7862 53.3555 96.6845 51.326 96.6845 49.0636C96.6845 46.8013 95.7529 44.7385 94.2891 43.2747C92.8252 41.8108 90.7624 40.8792 88.5001 40.8792ZM93.0248 53.6216C91.8604 54.7528 90.2634 55.4848 88.5001 55.4848C86.7368 55.4848 85.1398 54.7528 83.9754 53.6216C82.8109 52.4572 82.1123 50.8602 82.1123 49.0969C82.1123 47.3336 82.8442 45.7366 83.9754 44.5722C85.1398 43.4077 86.7368 42.7091 88.5001 42.7091C90.2634 42.7091 91.8604 43.441 93.0248 44.5722C94.1893 45.7366 94.8879 47.3336 94.8879 49.0969C94.9212 50.8602 94.1893 52.4572 93.0248 53.6216Z" fill="#838383"/>
<path d="M100.344 44.1064C101.244 44.1064 101.974 43.3766 101.974 42.4762C101.974 41.5759 101.244 40.846 100.344 40.846C99.4437 40.846 98.7139 41.5759 98.7139 42.4762C98.7139 43.3766 99.4437 44.1064 100.344 44.1064Z" fill="#838383"/>
</svg>

<svg width="177" height="115" viewBox="0 0 177 115" fill="none" xmlns="http://www.w3.org/2000/svg"><path fill="#F8F8F8" d="M0 0h177v115H0z"/><path d="M53.74 87.092h-1.119V85h-6.123v2.098h-1.125l-.006-3.018h.698c.367-.414.658-.969.873-1.664.218-.7.355-1.465.41-2.297l.187-3.65h5.104v7.611h1.113l-.012 3.012zm-6.392-3.012h4.16v-6.686h-2.889l-.123 2.508c-.05.98-.181 1.817-.393 2.508-.206.692-.459 1.248-.755 1.67zm7.283-2.308c0-.622.121-1.18.363-1.676a2.758 2.758 0 011.02-1.149 2.79 2.79 0 011.494-.404c.863 0 1.56.299 2.092.896.535.598.802 1.393.802 2.385v.076c0 .618-.119 1.172-.357 1.664a2.67 2.67 0 01-1.014 1.143c-.437.274-.941.41-1.511.41-.86 0-1.557-.299-2.092-.896-.531-.598-.797-1.389-.797-2.373v-.076zm1.09.128c0 .703.162 1.268.486 1.694.328.425.766.638 1.313.638.55 0 .988-.214 1.312-.644.324-.434.486-1.04.486-1.816 0-.696-.166-1.258-.498-1.688a1.564 1.564 0 00-1.312-.65c-.535 0-.967.213-1.295.638-.328.426-.492 1.035-.492 1.828zm8.824-2.877c.797 0 1.433.268 1.91.803.48.531.72 1.233.72 2.104v.1c0 .597-.114 1.132-.345 1.605a2.58 2.58 0 01-.996 1.096c-.43.257-.926.386-1.488.386-.852 0-1.537-.283-2.057-.85-.52-.57-.78-1.333-.78-2.29v-.528c0-1.332.247-2.39.739-3.176.496-.785 1.227-1.263 2.191-1.435.547-.098.917-.217 1.108-.357a.68.68 0 00.287-.58h.89c0 .488-.11.868-.333 1.142-.22.273-.57.467-1.055.58l-.809.182c-.644.152-1.129.41-1.453.773-.32.36-.53.84-.627 1.441.575-.663 1.274-.996 2.098-.996zm-.211.891c-.531 0-.953.18-1.266.54-.312.355-.468.849-.468 1.482v.093c0 .68.156 1.219.468 1.618.317.394.742.591 1.278.591.539 0 .965-.199 1.277-.597.313-.399.469-.98.469-1.747 0-.597-.158-1.076-.475-1.435-.312-.363-.74-.545-1.283-.545zM72.309 85c-.063-.125-.114-.348-.153-.668-.504.524-1.105.785-1.804.785-.625 0-1.14-.176-1.541-.527a1.728 1.728 0 01-.598-1.348c0-.66.25-1.172.75-1.535.504-.367 1.21-.55 2.121-.55h1.055v-.499c0-.379-.114-.68-.34-.902-.227-.227-.56-.34-1.002-.34-.387 0-.711.098-.973.293-.261.195-.392.432-.392.709h-1.09c0-.316.111-.621.334-.914a2.31 2.31 0 01.914-.703c.387-.172.81-.258 1.271-.258.73 0 1.303.184 1.717.55.414.364.629.866.645 1.507v2.918c0 .582.074 1.044.222 1.388V85H72.31zm-1.8-.826c.34 0 .663-.088.968-.264.304-.176.525-.404.662-.685v-1.301h-.85c-1.328 0-1.992.388-1.992 1.166 0 .34.113.605.34.797.226.191.517.287.873.287zm4.513.826v-6.34h2.472c.844 0 1.49.149 1.94.446.453.292.68.724.68 1.294 0 .293-.089.559-.264.797-.176.235-.436.414-.78.54.383.09.69.265.92.527.235.261.352.574.352.937 0 .582-.215 1.028-.645 1.336-.425.309-1.029.463-1.81.463h-2.865zm1.084-2.783v1.91h1.792c.454 0 .791-.084 1.014-.252.227-.168.34-.404.34-.709 0-.633-.465-.95-1.395-.95h-1.751zm0-.867h1.4c1.016 0 1.523-.297 1.523-.891 0-.594-.48-.9-1.441-.92h-1.482v1.81zm9.773-2.69h1.084V85h-1.084v-4.623L82.955 85h-1.084v-6.34h1.084v4.63l2.924-4.63zm7.535.88h-2.127V85h-1.084v-5.46h-2.086v-.88h5.297v.88zm2.238 1.306H97.3c.719.007 1.287.195 1.705.562.418.367.627.865.627 1.494 0 .633-.215 1.141-.645 1.524-.43.383-1.008.574-1.734.574h-2.684v-6.34h1.084v2.186zm0 .885v2.384h1.612c.406 0 .72-.103.943-.31.223-.211.334-.498.334-.862 0-.351-.11-.638-.328-.861-.215-.226-.518-.344-.908-.351h-1.653zm8.075.216c0-1.058.205-1.89.615-2.496.41-.605.972-.908 1.687-.908.332 0 .623.057.873.17V76h1.084v2.748c.274-.137.594-.205.961-.205.719 0 1.283.303 1.694.908.41.606.615 1.479.615 2.62 0 .933-.205 1.675-.615 2.226-.407.55-.967.826-1.682.826-.379 0-.703-.063-.973-.188v2.502h-1.084v-2.484c-.257.113-.552.17-.884.17-.711 0-1.272-.275-1.682-.826-.406-.55-.609-1.305-.609-2.262v-.088zm6.445 0c0-.797-.137-1.414-.41-1.851-.274-.442-.651-.662-1.131-.662-.246 0-.461.039-.645.117v4.588c.176.066.395.1.657.1.484 0 .859-.188 1.125-.563.269-.375.404-.951.404-1.729zm-5.361.123c0 .711.127 1.25.38 1.618.254.367.62.55 1.096.55.227 0 .432-.035.615-.105v-4.6a1.61 1.61 0 00-.603-.1c-.477 0-.844.213-1.102.64-.258.425-.386 1.091-.386 1.997zm7.57-.298c0-.622.121-1.18.363-1.676a2.755 2.755 0 011.02-1.149c.437-.27.935-.404 1.494-.404.863 0 1.56.299 2.092.896.535.598.802 1.393.802 2.385v.076c0 .618-.119 1.172-.357 1.664-.234.489-.572.87-1.014 1.143-.437.274-.941.41-1.511.41-.86 0-1.557-.299-2.092-.896-.532-.598-.797-1.389-.797-2.373v-.076zm1.09.128c0 .703.162 1.268.486 1.694.328.425.766.638 1.313.638.55 0 .988-.214 1.312-.644.324-.434.486-1.04.486-1.816 0-.696-.166-1.258-.498-1.688a1.563 1.563 0 00-1.312-.65c-.535 0-.967.213-1.295.638-.328.426-.492 1.035-.492 1.828zm10.623-2.36h-2.127V85h-1.084v-5.46h-2.086v-.88h5.297v.88zm.521 2.231c0-.62.121-1.18.364-1.675a2.753 2.753 0 011.019-1.149c.438-.27.936-.404 1.494-.404.863 0 1.561.299 2.092.896.535.598.803 1.393.803 2.385v.076c0 .618-.119 1.172-.358 1.664-.234.489-.572.87-1.013 1.143-.438.274-.942.41-1.512.41-.859 0-1.557-.299-2.092-.896-.531-.598-.797-1.389-.797-2.373v-.076zm1.09.13c0 .703.162 1.267.486 1.693.329.425.766.638 1.313.638.551 0 .988-.214 1.312-.644.325-.434.487-1.04.487-1.816 0-.696-.166-1.258-.498-1.688a1.564 1.564 0 00-1.313-.65c-.535 0-.967.213-1.295.638-.328.426-.492 1.035-.492 1.828z" fill="#838383"/><path d="M45.074 86.172h85.852v.586H45.074v-.586zm59.762-48.154a3.765 3.765 0 00-2.762-1.164h-5.523v-.067c0-.832-.332-1.63-.898-2.163a3.044 3.044 0 00-2.163-.898h-9.98c-.866 0-1.63.333-2.196.898a3.044 3.044 0 00-.899 2.163v.067h-5.49a3.763 3.763 0 00-2.76 1.164c-.7.699-1.165 1.697-1.165 2.761v16.569c0 1.098.433 2.063 1.164 2.761.7.699 1.697 1.165 2.762 1.165h27.148a3.765 3.765 0 002.762-1.165c.698-.698 1.164-1.697 1.164-2.761V40.779a3.766 3.766 0 00-1.164-2.761zm-.566 19.33h-.033c0 .599-.233 1.131-.632 1.53-.4.4-.932.632-1.531.632H74.926a2.136 2.136 0 01-1.53-.632 2.132 2.132 0 01-.633-1.53V40.779c0-.598.233-1.13.632-1.53.4-.4.932-.632 1.53-.632h6.422c.499 0 .898-.4.898-.898v-.965c0-.366.133-.699.366-.932.233-.233.566-.366.932-.366h9.947c.367 0 .7.133.932.366.233.233.366.566.366.932v.965c0 .499.4.898.898.898h6.421c.599 0 1.132.233 1.531.632.399.4.632.932.632 1.53v16.569z" fill="#838383"/><path d="M88.5 40.88a8.199 8.199 0 00-5.789 2.395 8.119 8.119 0 00-2.395 5.789c0 2.262.931 4.325 2.395 5.789a8.119 8.119 0 005.79 2.395 8.2 8.2 0 005.788-2.395 8.119 8.119 0 002.395-5.79 8.199 8.199 0 00-2.395-5.788 8.2 8.2 0 00-5.789-2.396zm4.525 12.742c-1.165 1.13-2.762 1.863-4.525 1.863-1.763 0-3.36-.732-4.525-1.863a6.36 6.36 0 01-1.863-4.525c0-1.763.732-3.36 1.863-4.525A6.36 6.36 0 0188.5 42.71c1.763 0 3.36.732 4.525 1.863a6.36 6.36 0 011.863 4.525c.033 1.763-.699 3.36-1.863 4.525zm7.319-9.516a1.63 1.63 0 100-3.26 1.63 1.63 0 000 3.26z" fill="#838383"/></svg>
